public/icons/telegram.svg

<svg height="20" viewBox="0 0 20 20" width="20" xmlns="http://www.w3.org/2000/svg"><g fill="none" fill-rule="evenodd"><path d="m0 0h20v20h-20z"/><g fill="#fff" transform="translate(0 1.428571)"><path d="m7.57575758 15.6060606c-.58903031 0-.4889394-.2224091-.69209091-.7832576l-1.73215152-5.70069694 13.33333335-7.90998485-7.0562771 10.93073589-2.85714283 2.8571429s0 0-.35714286.3571429c-.35714285.3571428-.63852813.2489177-.63852813.2489177z" fill-opacity=".6"/><path d="m7.57575758 15.6060606c.45454545 0 .65537878-.2078788.9090909-.4545454l2.42424242-2.3572728-3.02393938-1.8234848" fill-opacity=".4"/><path d="m7.88484848 10.9712121 7.32727272 5.4134849c.8361364.4613485 1.4396061.2224848 1.6478788-.7762879l2.9825758-14.05500001c.3053636-1.22427273-.4666819-1.77954545-1.2665758-1.41639394l-17.51363636 6.75318182c-1.1954697.4795-1.1885 1.14645455-.21790909 1.44363636l4.49439393 1.40277273 10.40500002-6.56439394c.491197-.29786364.9420151-.13772576.572.19066667"/></g></g></svg>

<?xml version="1.0" encoding="UTF-8"?>
<svg width="20px" height="20px" viewBox="0 0 20 20" version="1.1" xmlns="http://www.w3.org/2000/svg" xmlns:xlink="http://www.w3.org/1999/xlink">
    <title>Group</title>
    <g id="Page-1" stroke="none" stroke-width="1" fill="none" fill-rule="evenodd">
        <g id="MARKET-BASE-1-v0_1-(Not-login)-(Tablet)" transform="translate(-696.000000, -256.000000)">
            <g id="Group-57" transform="translate(32.000000, 205.000000)">
                <g id="Group-56" transform="translate(0.000000, 41.000000)">
                    <g id="Group" transform="translate(664.000000, 10.000000)">
                        <rect id="Background" x="0" y="0" width="20" height="20"></rect>
                        <g id="Telegram" transform="translate(0.000000, 1.428571)" fill="#FFFFFF">
                            <path d="M7.57575758,15.6060606 C6.98672727,15.6060606 7.08681818,15.3836515 6.88366667,14.822803 L5.15151515,9.12210606 L18.4848485,1.21212121 L11.4285714,12.1428571 L8.57142857,15 C8.57142857,15 8.57142857,15 8.21428571,15.3571429 C7.85714286,15.7142857 7.57575758,15.6060606 7.57575758,15.6060606 Z" id="Shape" fill-opacity="0.6"></path>
                            <path d="M7.57575758,15.6060606 C8.03030303,15.6060606 8.23113636,15.3981818 8.48484848,15.1515152 L10.9090909,12.7942424 L7.88515152,10.9707576" id="Shape" fill-opacity="0.4"></path>
                            <path d="M7.88484848,10.9712121 L15.2121212,16.384697 C16.0482576,16.8460455 16.6517273,16.6071818 16.86,15.6084091 L19.8425758,1.55340909 C20.1479394,0.329136364 19.3758939,-0.226136364 18.576,0.137015152 L1.06236364,6.89019697 C-0.133106061,7.36969697 -0.126136364,8.03665152 0.844454545,8.33383333 L5.33884848,9.73660606 L15.7438485,3.17221212 C16.2350455,2.87434848 16.6858636,3.03448636 16.3158485,3.36287879" id="Shape"></path>
                        </g>
                    </g>
                </g>
            </g>
        </g>
    </g>
</svg>
